release/img/bank_icon.svg

<svg width="58" height="58" viewBox="0 0 58 58" fill="none" xmlns="http://www.w3.org/2000/svg">
<path d="M23.2503 21.3034C18.8407 21.3039 14.4307 21.3045 10.0215 21.3015C8.10278 21.3015 6.80518 19.8635 7.05902 18.0043C7.19517 17.0003 7.79929 16.3281 8.68705 15.8657C10.2987 15.0247 11.9067 14.1758 13.5146 13.327C14.3684 12.8763 15.2227 12.4253 16.077 11.9758C17.1831 11.3932 18.2896 10.8113 19.3962 10.2295C21.6891 9.02385 23.9822 7.81811 26.272 6.60526C27.7767 5.80826 29.2742 5.7955 30.7732 6.58399C36.6174 9.65569 42.4587 12.7316 48.2986 15.8119C49.8019 16.6046 50.4131 17.9986 49.904 19.4111C49.4785 20.5896 48.4178 21.3043 47.0649 21.3043C43.2673 21.3062 39.4703 21.3056 35.6732 21.305C33.7744 21.3046 31.8752 21.3043 29.9762 21.3043H28.5439L28.5425 21.3029C26.7787 21.3029 25.0143 21.3031 23.2503 21.3034Z" fill="#1FAD96"/>
<path d="M34.5001 46.1702C38.4995 46.1696 42.499 46.169 46.4992 46.1709C48.2889 46.1709 49.6474 47.2529 50.0119 48.9447C50.4175 50.8181 49.005 52.7638 47.099 52.9538C46.8183 52.9822 46.5346 52.9978 46.2524 52.9978C34.4308 53.0006 22.6105 53.0006 10.7889 52.9978C8.96232 52.9978 7.64912 52.1398 7.16837 50.638C6.45788 48.4186 8.08024 46.1907 10.4514 46.1709C12.2763 46.1561 14.1019 46.1598 15.9272 46.1634H15.9284C16.7395 46.165 17.5508 46.1666 18.3618 46.1666H28.5015V46.1709C30.5009 46.1709 32.5007 46.1705 34.5001 46.1702Z" fill="#1FAD96"/>
<path d="M18.3454 35.206C18.3395 34.7159 18.3336 34.2256 18.3336 33.7355L18.335 33.7341C18.335 33.2447 18.3409 32.7548 18.3468 32.2649C18.3601 31.1622 18.3734 30.0589 18.3194 28.9592C18.2287 27.11 16.6758 25.7415 14.8663 25.7883C13.0638 25.8351 11.5606 27.2929 11.5393 29.1181C11.5038 32.1969 11.5038 35.2757 11.5393 38.3544C11.5591 40.1782 13.0652 41.636 14.8677 41.6842C16.6744 41.731 18.2273 40.3611 18.318 38.5104C18.372 37.4109 18.3587 36.3086 18.3454 35.206Z" fill="#1FAD96"/>
<path d="M31.9234 33.7604C31.9234 34.2471 31.9292 34.734 31.935 35.2207C31.9483 36.3267 31.9615 37.4324 31.9063 38.5353C31.817 40.3548 30.2755 41.7134 28.4844 41.6836C26.6862 41.6538 25.156 40.2031 25.1305 38.3808C25.0893 35.2849 25.0893 32.1877 25.1305 29.0919C25.1546 27.2696 26.6819 25.8188 28.4815 25.7876C30.2726 25.7564 31.817 27.115 31.9063 28.9317C31.9609 30.0554 31.9474 31.1834 31.9339 32.3111C31.9282 32.7943 31.9224 33.2776 31.9219 33.7604H31.9234Z" fill="#1FAD96"/>
<path d="M45.5291 35.1883C45.5233 34.699 45.5176 34.2097 45.5176 33.7205H45.5147C45.5147 33.231 45.5206 32.741 45.5265 32.251C45.5398 31.1483 45.5531 30.0453 45.4991 28.9456C45.4098 27.1219 43.8796 25.7647 42.0871 25.7874C40.2889 25.8101 38.7502 27.258 38.7246 29.0789C38.6807 32.1747 38.6835 35.2719 38.7218 38.3677C38.7445 40.1901 40.2619 41.6451 42.063 41.6834C43.8725 41.7216 45.4112 40.3517 45.502 38.4954C45.555 37.395 45.542 36.2918 45.5291 35.1883Z" fill="#1FAD96"/>
</svg>

<svg xmlns="http://www.w3.org/2000/svg" width="58" height="58" fill="none" viewBox="0 0 58 58">
  <path fill="#1FAD96" d="M23.25 21.303c-4.41 0-8.82.002-13.229-.002-1.918 0-3.216-1.438-2.962-3.297.136-1.004.74-1.676 1.628-2.138 1.612-.841 3.22-1.69 4.828-2.539.853-.45 1.708-.902 2.562-1.351l3.32-1.747c2.292-1.205 4.585-2.41 6.875-3.624 1.505-.797 3.002-.81 4.501-.021 5.844 3.072 11.686 6.148 17.526 9.228 1.503.793 2.114 2.187 1.605 3.6-.426 1.178-1.486 1.892-2.84 1.892-3.797.002-7.594.002-11.39.001h-7.131l-.002-.002H23.25ZM34.5 46.17h12c1.789 0 3.147 1.083 3.512 2.775.405 1.873-1.007 3.819-2.913 4.009-.28.028-.564.044-.847.044-11.821.003-23.642.003-35.463 0-1.827 0-3.14-.858-3.62-2.36-.711-2.22.911-4.447 3.282-4.467 1.825-.015 3.65-.011 5.476-.008h.001c.811.002 1.623.004 2.434.004h10.14v.004H34.5ZM18.345 35.206c-.005-.49-.011-.98-.011-1.47l.001-.002c0-.49.006-.98.012-1.47.013-1.102.026-2.205-.028-3.305-.09-1.849-1.643-3.218-3.453-3.17-1.802.046-3.305 1.504-3.327 3.33a400.526 400.526 0 0 0 0 9.235c.02 1.824 1.526 3.282 3.329 3.33 1.806.047 3.36-1.323 3.45-3.174.054-1.1.04-2.201.027-3.304Zm13.578-1.446c0 .487.006.974.012 1.46.013 1.107.027 2.212-.029 3.315-.089 1.82-1.63 3.178-3.422 3.149-1.798-.03-3.328-1.48-3.354-3.303a349.06 349.06 0 0 1 0-9.29c.025-1.821 1.552-3.272 3.352-3.303 1.79-.032 3.335 1.327 3.424 3.144.055 1.123.041 2.251.028 3.38-.006.482-.012.966-.012 1.448h.001Zm13.607 1.428c-.007-.489-.012-.978-.012-1.468h-.003c0-.489.006-.979.011-1.469.014-1.103.027-2.206-.027-3.305-.09-1.824-1.62-3.181-3.412-3.159-1.798.023-3.337 1.471-3.362 3.292a349.901 349.901 0 0 0-.003 9.289c.023 1.822 1.54 3.277 3.341 3.315 1.81.039 3.348-1.331 3.439-3.188.053-1.1.04-2.203.027-3.307Z"/>
</svg>
